!! 00000] TT[WS
!!!OTL: Yuer lang
!!!ARE: Asia, China, Shanxi Heshun
!! Ethnic Group: Han
!! WI, 122 (2)
!!!SCT: J0145
!!!YEM: Copyright 1995, estate of Helmut Schaffrath.
**kern
*ICvox
*Ivox
*M2/4
*k[b-e-a-]
*E-:
{4cc
4cc
=1
8r
8ee-
8cc
8b-
=2
8b-
8g
[4b-
=3
4b-]}
{8g
8b-
=4
4cc
4ee-
=5
8r
4b-
8g
=6
8b-
8g
[4f
=7
4f]}
{4cc
=8
4cc
8r
8ee-
=9
8cc
8b-
8b-
8g
=10
2b-}
=11
{8g
8b-
4cc
=12
4ee-
8r
[8b-
=13
8b-]
8g
8b-
8g
=14
2f}
=15
{4.b-
8g
=16
8f
8g
8f
8e-
=17
8f
8d
4c
=18
8r
4c
8e-
=19
8b-
8g
4f
=20
8r}
{4c
8e-
=21
8b-
8g
4f
=22
8r
4b-
8c
=23
8e-
8f
8d
8c
=24
2B-}
==
!!!AGN: Xiaodiao. Qingge
!!!ONB: ESAC (Essen Associative Code) Database: CHINA
!!!AMT: simple duple
!!!AIN: vox
!!!EED: Helmut Schaffrath
!!!EEV: 1.0
*-
!!!ONB: Tied note syntax fixed by Craig Sapp, 2004/05/03/
